X: 1486
T: Gervasoni Waltz No 4
B: australian traditional tunes wiki
M:3/4
L:1/8
R: Waltz
Q: 1/4=100
K:G
V:1 
GG|"G"G2B2d2|e4dc|"D7"d4c2|F4 (3EFE|D2F2A2|d4-dd|c2B2A2|"G"G4EF|
G2B2d2|e4dc|"D7"d4c2|F4(3EFE|D2F2A2|d4-dd|c2B2A2|"G"G4d2|
"D7"f3e cA|f3e cA|"G"(3efe d2d2|B4dd|"D7"(3dgd c2c2|A4c2|"G"eed2d2|B4d2|
"D7"f3e cA|f3e cA|"G"(3efe d2d2|B4d2|(3dgd B2d2|"D7"f4(3efe|d2e2f2|"G"g4||
% abcbook-tune_id 6342d53a41218bfa9e9c9dd8


% abcbook-boost 0
% abcbook-tablature 
% abcbook-transpose 
% abcbook-lastupdated 1665324367485
% abcbook-soundfonts 
% abcbook-repeats 1
% NFF Book 2017

